X: 478
T: Cluck Old Hen
B: jims roots
M:2/4
L:1/8
Q: 1/4=100
K:G
V:1 
|:"A"[A2e][A2a] "G"[d2g]ga | "A"[A2e][A2a] "G"[G2d2]dd | "A"[A2e][A2a] "G"gagf | "E"ecB2 "A"A4 :|
"A"[A2e][A2e] "C"[c3e] [ce] | "A"[A2e][A2e] "G"[G,3G][G,G] | "A"[A2e] [Ae]B cBcd | "E"edc2 "A"A4 |
"A"[A2e][A2e] "C"[c3e][ce] | "A"[Ae][Be][A2e] "G"[G3A][GA] | "A"[A2e][Ae][Be] [ce][Be][ce]d | "E"edc2 "A"A4 ||
% abcbook-tune_id 6298c245a6d988198777e910


% abcbook-boost 0
% abcbook-tablature 
% abcbook-transpose 
% abcbook-lastupdated 1654178373748
% abcbook-soundfonts 
% abcbook-repeats 1


